public/about/figma.svg

<svg width="80" height="80" viewBox="0 0 80 80" fill="none" xmlns="http://www.w3.org/2000/svg">
<path fill-rule="evenodd" clip-rule="evenodd" d="M28.8909 31.389C24.135 31.389 20.2798 35.2437 20.2798 39.9994C20.2798 44.7554 24.1352 48.6108 28.8909 48.6108H37.502V40.1731C37.5013 40.1154 37.501 40.0574 37.501 39.9994C37.501 39.9417 37.5013 39.8837 37.502 39.8261V31.389H28.8909ZM37.502 26.389H28.8909C24.1352 26.389 20.2798 22.5336 20.2798 17.7778C20.2798 13.0221 24.1352 9.16675 28.8909 9.16675H37.502V26.389ZM42.502 9.16675V26.3888L51.111 26.3884C55.8666 26.3884 59.7233 22.5335 59.7233 17.7778C59.7233 13.0221 55.868 9.16675 51.112 9.16675H42.502ZM51.1113 31.3884C46.402 31.3889 42.5756 35.1697 42.502 39.8614V40.1374C42.5756 44.8297 46.4023 48.6108 51.112 48.6108C55.868 48.6108 59.7233 44.7554 59.7233 39.9994C59.7233 35.2437 55.867 31.3885 51.1113 31.3884ZM28.8909 53.6108C24.1353 53.6108 20.2793 57.4667 20.2793 62.2227C20.2793 66.9787 24.1346 70.8341 28.8904 70.8341C33.6463 70.8341 37.5016 66.9787 37.5016 62.2227L37.502 53.6108H28.8909Z" fill="#FE705A"/>
</svg>

<?xml version="1.0"?>
<svg width="80" height="80" xmlns="http://www.w3.org/2000/svg" xmlns:svg="http://www.w3.org/2000/svg">
 <g class="layer">
  <title>Layer 1</title>
  <path clip-rule="evenodd" d="m28.89,31.39c-4.75,0 -8.61,3.85 -8.61,8.61c0,4.76 3.86,8.61 8.61,8.61l8.61,0l0,-8.44c0,-0.05 0,-0.11 0,-0.17c0,-0.06 0,-0.12 0,-0.17l0,-8.44l-8.61,0zm8.61,-5l-8.61,0c-4.75,0 -8.61,-3.86 -8.61,-8.61c0,-4.76 3.86,-8.61 8.61,-8.61l8.61,0l0,17.22zm5,-17.22l0,17.22l8.61,0c4.76,0 8.61,-3.86 8.61,-8.61c0,-4.76 -3.85,-8.61 -8.61,-8.61l-8.61,0zm8.61,22.22c-4.71,0 -8.53,3.78 -8.61,8.47l0,0.28c0.08,4.69 3.9,8.47 8.61,8.47c4.76,0 8.61,-3.85 8.61,-8.61c0,-4.76 -3.85,-8.61 -8.61,-8.61zm-22.22,22.22c-4.75,0 -8.61,3.86 -8.61,8.61c0,4.76 3.85,8.61 8.61,8.61c4.76,0 8.61,-3.85 8.61,-8.61l0,-8.61l-8.61,0z" fill="#3b82f6" fill-rule="evenodd" id="svg_1"/>
 </g>
</svg>
